; generated by PrusaSlicer 2.8.1+win64 on 2024-09-22 at 21:22:45 UTC

; 

; external perimeters extrusion width = 0.42mm
; perimeters extrusion width = 0.44mm
; infill extrusion width = 0.44mm
; solid infill extrusion width = 0.44mm
; top infill extrusion width = 0.40mm
; first layer extrusion width = 0.42mm

; external perimeters extrusion width = 0.42mm
; perimeters extrusion width = 0.44mm
; infill extrusion width = 0.44mm
; solid infill extrusion width = 0.44mm
; top infill extrusion width = 0.40mm
; first layer extrusion width = 0.42mm

; external perimeters extrusion width = 0.42mm
; perimeters extrusion width = 0.44mm
; infill extrusion width = 0.44mm
; solid infill extrusion width = 0.44mm
; top infill extrusion width = 0.40mm
; first layer extrusion width = 0.42mm

M201 X500 Y500 Z100 E5000 ; sets maximum accelerations, mm/sec^2
M203 X500 Y500 Z10 E60 ; sets maximum feedrates, mm / sec
M204 S500 T1000 ; sets acceleration (S) and retract acceleration (R), mm/sec^2
M205 X8.00 Y8.00 Z0.40 E5.00 ; sets the jerk limits, mm/sec
M205 S0 T0 ; sets the minimum extruding and travel feed rate, mm/sec

; printing object shaft.stl id:2 copy 0
; stop printing object shaft.stl id:2 copy 0
; printing object tire_pole.stl id:0 copy 0
; stop printing object tire_pole.stl id:0 copy 0
; printing object tire_pole.stl id:1 copy 0
; stop printing object tire_pole.stl id:1 copy 0

;TYPE:Custom
G90 ; use absolute coordinates
M83 ; extruder relative mode
M104 S150 ; set temporary nozzle temp to prevent oozing during homing
M140 S80 ; set final bed temp
G4 S30 ; allow partial nozzle warmup
G28 ; home all axis
G1 Z50 F240
G1 X2.0 Y10 F3000
M104 S200 ; set final nozzle temp
M190 S80 ; wait for bed temp to stabilize
M109 S200 ; wait for nozzle temp to stabilize
G1 Z0.28 F240
G92 E0
G1 X2.0 Y140 E10 F1500 ; prime the nozzle
G1 X2.3 Y140 F5000
G92 E0
G1 X2.3 Y10 E10 F1200 ; prime the nozzle
G92 E0
G21 ; set units to millimeters
G90 ; use absolute coordinates
M83 ; use relative distances for extrusion
; Filament gcode
M107
;LAYER_CHANGE
;Z:0.2
;HEIGHT:0.2
G1 E-.8 F1800
G1 Z.2 F9000
G1 X99.659 Y103.271
G1 Z.2
G1 E.8 F1800
M204 S500
;TYPE:Skirt/Brim
;WIDTH:0.42
G1 F1200
G1 X107.009 Y97.361 E.29571
G1 X108.212 Y96.541 E.04565
G1 X109.548 Y95.881 E.04672
G1 X110.832 Y95.449 E.04248
G1 X112.296 Y95.168 E.04674
G1 X113.75 Y95.096 E.04565
G1 X114.801 Y95.169 E.03303
G1 X115.838 Y95.345 E.03298
G1 X116.854 Y95.625 E.03304
G1 X117.837 Y96.003 E.03302
G1 X118.776 Y96.478 E.03299
G1 X119.665 Y97.044 E.03304
G1 X121.19 Y98.363 E.06322
G1 X121.878 Y99.16 E.03301
G1 X122.484 Y100.022 E.03304
G1 X123.342 Y101.695 E.05895
G1 X123.688 Y102.69 E.03303
G1 X123.933 Y103.715 E.03304
G1 X124.075 Y104.757 E.03297
G1 X124.113 Y105.81 E.03304
G1 X123.228 Y116.631 E.34042
G1 X122.877 Y118.053 E.04592
G1 X122.098 Y119.828 E.06078
G1 X121.361 Y120.943 E.04191
G1 X120.694 Y121.734 E.03244
G1 X119.712 Y122.64 E.04189
G1 X118.506 Y123.471 E.04592
G1 X117.311 Y124.069 E.0419
G1 X115.455 Y124.629 E.06078
G1 X114.431 Y124.779 E.03245
G1 X113.095 Y124.805 E.0419
G1 X111.641 Y124.629 E.04592
G1 X110.351 Y124.284 E.04187
G1 X109.392 Y123.893 E.03247
G1 X100.854 Y119.378 E.30283
G1 X99.659 Y118.551 E.04557
G1 X98.276 Y117.193 E.06077
G1 X97.495 Y116.109 E.04189
G1 X96.992 Y115.205 E.03244
G1 X96.494 Y113.965 E.0419
G1 X96.221 Y112.966 E.03247
G1 X96.034 Y111.643 E.04189
G1 X96.008 Y110.609 E.03243
G1 X96.221 Y108.856 E.05537
G1 X96.494 Y107.858 E.03244
G1 X96.992 Y106.618 E.0419
G1 X97.495 Y105.714 E.03244
G1 X98.276 Y104.629 E.04192
G1 X99.617 Y103.313 E.05891
G1 X99.617 Y103.313 F9000
G1 X99.88 Y103.582
G1 F1200
G1 X99.91 Y103.553 E.00131
G1 X107.244 Y97.655 E.29509
G1 X108.4 Y96.867 E.04387
G1 X109.694 Y96.228 E.04525
G1 X110.925 Y95.815 E.04071
G1 X112.343 Y95.543 E.04527
G1 X113.74 Y95.473 E.04386
G1 X114.754 Y95.543 E.03187
G1 X115.754 Y95.713 E.0318
G1 X116.734 Y95.982 E.03186
G1 X117.682 Y96.347 E.03185
G1 X118.588 Y96.805 E.03183
G1 X119.444 Y97.35 E.03182
G1 X120.92 Y98.627 E.0612
G1 X121.583 Y99.395 E.03181
G1 X122.167 Y100.226 E.03185
G1 X122.991 Y101.833 E.05662
G1 X123.325 Y102.792 E.03184
G1 X123.562 Y103.78 E.03186
G1 X123.699 Y104.786 E.03183
G1 X123.736 Y105.801 E.03185
G1 X122.854 Y116.586 E.33929
G1 X122.525 Y117.919 E.04305
G1 X121.764 Y119.653 E.05937
G1 X121.051 Y120.728 E.04045
G1 X120.412 Y121.484 E.03104
G1 X119.462 Y122.357 E.04045
G1 X118.331 Y123.138 E.0431
G1 X117.178 Y123.717 E.04045
G1 X115.365 Y124.263 E.05937
G1 X114.386 Y124.405 E.03102
G1 X113.095 Y124.428 E.04048
G1 X111.732 Y124.263 E.04305
G1 X110.484 Y123.931 E.04049
G1 X109.568 Y123.559 E.031
G1 X101.03 Y119.044 E.30283
G1 X99.91 Y118.269 E.0427
G1 X98.558 Y116.943 E.05938
G1 X97.806 Y115.894 E.04047
G1 X97.326 Y115.029 E.03102
G1 X96.846 Y113.831 E.04047
G1 X96.587 Y112.876 E.03103
G1 X96.408 Y111.598 E.04046
G1 X96.385 Y110.609 E.03102
G1 X96.587 Y108.946 E.05253
G1 X96.846 Y107.991 E.03103
G1 X97.326 Y106.793 E.04047
G1 X97.806 Y105.928 E.03102
G1 X98.558 Y104.879 E.04047
G1 X99.838 Y103.624 E.05621
;WIPE_START
G1 F7200
G1 X99.88 Y103.582 E-.01411
G1 X99.91 Y103.553 E-.00991
G1 X102.456 Y101.506 E-.77598
;WIPE_END
G1 X102.164 Y106.229 F9000
G1 E.8 F1800
G1 F1200
G1 X102.347 Y106.067 E.00766
G1 X103.516 Y105.413 E.042
G1 X104.805 Y105.034 E.04213
G1 X106.866 Y105.013 E.06462
G1 X107.102 Y103.787 E.03915
G1 X107.599 Y102.549 E.04183
G1 X108.357 Y101.404 E.04305
G1 X109.301 Y100.461 E.04184
G1 X110.406 Y99.728 E.04158
G1 X111.599 Y99.236 E.04046
G1 X112.902 Y98.978 E.04165
G1 X114.195 Y98.978 E.04054
G1 X115.461 Y99.225 E.04044
G1 X116.684 Y99.724 E.04142
G1 X117.782 Y100.45 E.04127
G1 X118.7 Y101.356 E.04044
G1 X119.431 Y102.426 E.04063
G1 X119.951 Y103.644 E.04152
G1 X120.217 Y104.891 E.03998
G1 X120.239 Y106.214 E.04149
G1 X119.973 Y107.605 E.0444
G1 X119.454 Y108.852 E.04235
G1 X118.754 Y109.898 E.03946
G1 X117.785 Y110.881 E.04328
G1 X118.237 Y111.31 E.01954
G1 X118.912 Y112.397 E.04012
G1 X119.341 Y113.587 E.03966
G1 X119.507 Y114.795 E.03823
G1 X119.419 Y116.066 E.03995
G1 X118.77 Y117.875 E.06026
G1 X117.827 Y119.152 E.04977
G1 X116.957 Y119.891 E.03579
G1 X115.927 Y120.467 E.037
G1 X114.409 Y120.899 E.04949
G1 X112.723 Y120.903 E.05286
G1 X111.536 Y120.611 E.03833
G1 X110.44 Y120.093 E.03801
G1 X108.932 Y118.775 E.0628
G1 X108.205 Y117.644 E.04216
G1 X107.781 Y116.523 E.03758
G1 X106.857 Y116.786 E.03012
G1 X104.957 Y116.81 E.05958
G1 X103.694 Y116.48 E.04093
G1 X102.529 Y115.88 E.04109
G1 X101.234 Y114.719 E.05453
G1 X100.515 Y113.628 E.04097
G1 X100.03 Y112.322 E.04368
G1 X99.861 Y110.976 E.04253
G1 X100.003 Y109.617 E.04284
G1 X100.609 Y108.019 E.05359
G1 X101.405 Y106.908 E.04285
G1 X102.12 Y106.269 E.03007
G1 X102.12 Y106.269 F9000
G1 X102.369 Y106.551
G1 F1200
G1 X102.581 Y106.363 E.00888
G1 X103.679 Y105.754 E.03937
G1 X104.884 Y105.404 E.03934
G1 X106.686 Y105.392 E.0565
G1 X107.233 Y105.527 E.01767
G1 X107.24 Y105.066 E.01446
G1 X107.459 Y103.91 E.03689
G1 X107.925 Y102.74 E.03949
G1 X108.637 Y101.656 E.04066
G1 X109.526 Y100.764 E.03949
G1 X110.568 Y100.068 E.03929
G1 X111.692 Y99.602 E.03815
G1 X112.922 Y99.355 E.03934
G1 X114.142 Y99.352 E.03825
G1 X115.337 Y99.582 E.03816
G1 X116.493 Y100.05 E.0391
G1 X117.531 Y100.733 E.03896
G1 X118.399 Y101.584 E.03811
G1 X119.109 Y102.623 E.03946
G1 X119.597 Y103.773 E.03917
G1 X119.844 Y104.95 E.03771
G1 X119.861 Y106.2 E.0392
G1 X119.607 Y107.513 E.04193
G1 X119.113 Y108.689 E.03999
G1 X118.451 Y109.672 E.03716
G1 X117.597 Y110.534 E.03805
G1 X117.168 Y110.829 E.01632
G1 X117.932 Y111.533 E.03257
G1 X118.564 Y112.544 E.03738
G1 X118.979 Y113.696 E.03839
G1 X119.131 Y114.826 E.03575
G1 X119.055 Y115.963 E.03573
G1 X118.425 Y117.721 E.05855
G1 X117.567 Y118.878 E.04516
G1 X116.727 Y119.592 E.03457
G1 X115.763 Y120.127 E.03457
G1 X114.382 Y120.522 E.04504
G1 X112.746 Y120.526 E.0513
G1 X111.645 Y120.25 E.03559
G1 X110.667 Y119.79 E.03389
G1 X109.234 Y118.548 E.05946
G1 X108.533 Y117.457 E.04066
G1 X108.147 Y116.421 E.03466
G1 X108.083 Y116.039 E.01214
G1 X106.824 Y116.41 E.04115
G1 X105.026 Y116.438 E.05638
G1 X103.846 Y116.135 E.0382
G1 X102.762 Y115.582 E.03816
G1 X101.505 Y114.455 E.05293
G1 X100.843 Y113.44 E.038
G1 X100.401 Y112.252 E.03974
G1 X100.238 Y110.991 E.03987
G1 X100.365 Y109.728 E.0398
G1 X100.953 Y108.177 E.05201
G1 X101.698 Y107.146 E.03988
G1 X102.324 Y106.59 E.02625
G1 X102.324 Y106.59 F9000
G1 X102.573 Y106.873
G1 F1200
G1 X102.814 Y106.66 E.01008
G1 X103.842 Y106.094 E.03679
G1 X104.962 Y105.773 E.03653
G1 X106.66 Y105.769 E.05324
G1 X107.613 Y106.022 E.03092
G1 X107.614 Y105.117 E.02838
G1 X107.826 Y103.998 E.03571
G1 X108.268 Y102.899 E.03714
G1 X108.941 Y101.881 E.03826
G1 X109.779 Y101.045 E.03711
G1 X110.761 Y100.393 E.03696
G1 X111.818 Y99.958 E.03584
G1 X112.977 Y99.728 E.03705
G1 X114.123 Y99.729 E.03593
G1 X115.246 Y99.948 E.03587
G1 X116.333 Y100.391 E.0368
G1 X117.308 Y101.037 E.03667
G1 X118.121 Y101.839 E.03581
G1 X118.786 Y102.819 E.03713
G1 X119.242 Y103.902 E.03684
G1 X119.471 Y105.008 E.03541
G1 X119.484 Y106.184 E.03687
G1 X119.241 Y107.421 E.03953
G1 X118.79 Y108.494 E.03649
G1 X118.171 Y109.42 E.03492
G1 X117.343 Y110.254 E.03685
G1 X116.553 Y110.784 E.02983
G1 X117.626 Y111.756 E.04539
G1 X118.234 Y112.727 E.03592
G1 X118.609 Y113.767 E.03466
G1 X118.753 Y114.82 E.03332
G1 X118.681 Y115.911 E.03428
G1 X118.08 Y117.566 E.05521
G1 X117.306 Y118.605 E.04062
G1 X116.527 Y119.271 E.03213
G1 X115.599 Y119.787 E.03329
G1 X114.354 Y120.145 E.04062
G1 X112.769 Y120.149 E.0497
G1 X111.757 Y119.89 E.03275
G1 X110.852 Y119.461 E.0314
G1 X109.503 Y118.282 E.05617
G1 X108.879 Y117.307 E.0363
G1 X108.508 Y116.31 E.03335
G1 X108.38 Y115.424 E.02807
G1 X107.802 Y115.728 E.02048
G1 X106.791 Y116.033 E.03311
G1 X105.046 Y116.061 E.05472
G1 X103.998 Y115.789 E.03395
G1 X102.995 Y115.284 E.03521
G1 X101.776 Y114.192 E.05131
G1 X101.171 Y113.254 E.035
G1 X100.762 Y112.142 E.03715
G1 X100.616 Y111.005 E.03594
G1 X100.726 Y109.837 E.03678
G1 X101.296 Y108.335 E.05037
G1 X101.99 Y107.386 E.03686
G1 X102.528 Y106.912 E.02248
G1 X102.528 Y106.912 F9000
G1 X102.775 Y107.195
G1 F1200
G1 X103.046 Y106.958 E.01129
G1 X104.003 Y106.436 E.03418
G1 X105.039 Y106.143 E.03376
G1 X106.633 Y106.146 E.04998
G1 X107.539 Y106.395 E.02946
G1 X108.068 Y106.645 E.01835
G1 X107.991 Y106.185 E.01462
G1 X107.988 Y105.169 E.03186
G1 X108.193 Y104.087 E.03453
G1 X108.61 Y103.059 E.03478
G1 X109.244 Y102.106 E.03589
G1 X110.031 Y101.326 E.03474
G1 X110.923 Y100.734 E.03357
G1 X111.911 Y100.324 E.03354
G1 X112.996 Y100.106 E.0347
G1 X114.104 Y100.106 E.03474
G1 X115.154 Y100.314 E.03356
G1 X116.172 Y100.733 E.03452
G1 X117.083 Y101.34 E.03432
G1 X117.842 Y102.093 E.03352
G1 X118.463 Y103.014 E.03483
G1 X118.887 Y104.03 E.03452
G1 X119.098 Y105.065 E.03312
G1 X119.107 Y106.167 E.03455
G1 X118.875 Y107.329 E.03715
G1 X118.466 Y108.3 E.03304
G1 X117.89 Y109.167 E.03264
G1 X117.089 Y109.974 E.03565
G1 X115.936 Y110.739 E.04339
G1 X117.322 Y111.98 E.05833
G1 X117.887 Y112.875 E.03319
G1 X118.238 Y113.838 E.03214
G1 X118.377 Y114.852 E.03209
G1 X118.306 Y115.858 E.03162
G1 X117.736 Y117.41 E.05184
G1 X117.045 Y118.332 E.03613
G1 X116.297 Y118.972 E.03087
G1 X115.435 Y119.447 E.03086
G1 X114.327 Y119.768 E.03617
G1 X112.793 Y119.772 E.0481
G1 X111.871 Y119.53 E.02989
G1 X111.039 Y119.132 E.02892
G1 X109.773 Y118.017 E.05289
G1 X109.226 Y117.157 E.03196
G1 X108.869 Y116.199 E.03206
G1 X108.682 Y114.83 E.04332
G1 X107.674 Y115.373 E.0359
G1 X106.708 Y115.664 E.03163
G1 X105.068 Y115.684 E.05142
G1 X104.113 Y115.429 E.03099
G1 X103.227 Y114.987 E.03104
G1 X102.047 Y113.929 E.04969
G1 X101.501 Y113.069 E.03194
G1 X101.133 Y112.071 E.03335
G1 X100.993 Y111.017 E.03334
G1 X101.088 Y109.946 E.03371
G1 X101.639 Y108.493 E.04872
G1 X102.28 Y107.627 E.03378
G1 X102.729 Y107.234 E.01871
G1 X102.729 Y107.234 F9000
G1 X102.975 Y107.518
G1 F1200
G1 X103.277 Y107.257 E.01252
G1 X104.129 Y106.792 E.03043
G1 X105.066 Y106.521 E.03058
G1 X106.606 Y106.523 E.04829
G1 X107.418 Y106.753 E.02646
G1 X108.152 Y107.11 E.02559
G1 X108.629 Y107.485 E.01902
G1 X108.368 Y106.163 E.04225
G1 X108.366 Y105.187 E.0306
G1 X108.559 Y104.177 E.03224
G1 X108.951 Y103.219 E.03245
G1 X109.524 Y102.36 E.03238
G1 X110.255 Y101.629 E.03241
G1 X111.115 Y101.059 E.03235
G1 X112.038 Y100.679 E.0313
G1 X113.015 Y100.482 E.03125
G1 X114.051 Y100.479 E.03248
G1 X115.03 Y100.67 E.03127
G1 X115.98 Y101.058 E.03218
G1 X116.831 Y101.621 E.03199
G1 X117.563 Y102.347 E.03233
G1 X118.139 Y103.207 E.03245
G1 X118.531 Y104.157 E.03222
G1 X118.725 Y105.121 E.03083
G1 X118.73 Y106.149 E.03223
G1 X118.52 Y107.201 E.03364
G1 X118.142 Y108.107 E.03078
G1 X117.586 Y108.943 E.03148
G1 X116.836 Y109.695 E.0333
G1 X116.005 Y110.248 E.0313
G1 X114.893 Y110.714 E.0378
G1 X115.914 Y111.224 E.03578
G1 X117.018 Y112.205 E.04631
G1 X117.54 Y113.025 E.03048
G1 X117.867 Y113.912 E.02964
G1 X117.999 Y114.846 E.02958
G1 X117.932 Y115.804 E.03011
G1 X117.392 Y117.252 E.04846
G1 X116.785 Y118.059 E.03166
G1 X116.067 Y118.673 E.02962
G1 X115.273 Y119.106 E.02836
G1 X114.299 Y119.391 E.03182
G1 X112.818 Y119.395 E.04644
G1 X111.987 Y119.171 E.02699
G1 X111.227 Y118.805 E.02645
G1 X110.044 Y117.754 E.04962
G1 X109.556 Y116.974 E.02885
G1 X109.229 Y116.087 E.02964
G1 X109.097 Y115.153 E.02958
G1 X109.187 Y113.864 E.04051
G1 X108.342 Y114.584 E.03481
G1 X107.547 Y115.018 E.0284
G1 X106.626 Y115.295 E.03016
G1 X105.092 Y115.307 E.0481
G1 X104.231 Y115.071 E.02799
G1 X103.46 Y114.689 E.02698
G1 X102.319 Y113.666 E.04805
G1 X101.831 Y112.886 E.02885
G1 X101.504 Y111.999 E.02964
G1 X101.371 Y111.026 E.03079
G1 X101.45 Y110.055 E.03055
G1 X101.982 Y108.652 E.04705
G1 X102.569 Y107.87 E.03066
G1 X102.93 Y107.557 E.01498
;WIPE_START
G1 F7200
G1 X102.975 Y107.518 E-.01414
G1 X103.277 Y107.257 E-.0948
G1 X104.129 Y106.792 E-.23053
G1 X105.066 Y106.521 E-.23166
G1 X106.03 Y106.522 E-.22887
;WIPE_END
G1 X108.792 Y106.377 F9000
G1 E.8 F1800
G1 F1200
G1 X108.745 Y106.143 E.00748
G1 X108.743 Y105.204 E.02944
G1 X108.926 Y104.268 E.0299
G1 X109.293 Y103.38 E.03013
G1 X109.804 Y102.612 E.02892
G1 X110.481 Y101.932 E.03009
G1 X111.277 Y101.4 E.03002
G1 X112.164 Y101.035 E.03007
G1 X113.07 Y100.856 E.02896
G1 X114.031 Y100.856 E.03013
G1 X114.938 Y101.036 E.02899
G1 X115.818 Y101.399 E.02985
G1 X116.605 Y101.924 E.02966
G1 X117.283 Y102.6 E.03002
G1 X117.814 Y103.4 E.03011
G1 X118.175 Y104.282 E.02988
G1 X118.351 Y105.175 E.02854
G1 X118.353 Y106.131 E.02997
G1 X118.164 Y107.073 E.03012
G1 X117.801 Y107.945 E.02962
G1 X117.283 Y108.718 E.02918
G1 X116.611 Y109.391 E.02982
G1 X115.812 Y109.924 E.03011
G1 X114.958 Y110.277 E.02897
G1 X114.017 Y110.465 E.03009
G1 X113.064 Y110.463 E.02988
G1 X112.137 Y110.276 E.02965
G1 X111.264 Y109.913 E.02964
G1 X110.482 Y109.388 E.02953
G1 X109.808 Y108.712 E.02993
G1 X109.281 Y107.918 E.02988
G1 X108.933 Y107.074 E.02862
G1 X108.804 Y106.436 E.02041
G1 X108.804 Y106.436 F9000
G1 X109.171 Y106.361
G1 F1200
G1 X109.122 Y106.122 E.00765
G1 X109.117 Y105.257 E.02712
G1 X109.282 Y104.393 E.02758
G1 X109.618 Y103.572 E.02781
G1 X110.086 Y102.863 E.02664
G1 X110.708 Y102.234 E.02774
G1 X111.439 Y101.741 E.02765
G1 X112.257 Y101.401 E.02778
G1 X113.09 Y101.233 E.02664
G1 X113.977 Y101.23 E.02781
G1 X114.845 Y101.403 E.02775
G1 X115.655 Y101.74 E.02751
G1 X116.379 Y102.226 E.02734
G1 X117.001 Y102.852 E.02767
G1 X117.489 Y103.591 E.02777
G1 X117.819 Y104.406 E.02757
G1 X117.978 Y105.228 E.02625
G1 X117.976 Y106.111 E.02769
G1 X117.799 Y106.979 E.02778
G1 X117.461 Y107.781 E.02729
G1 X116.981 Y108.491 E.02687
G1 X116.359 Y109.11 E.02751
G1 X115.62 Y109.599 E.02778
G1 X114.833 Y109.921 E.02666
G1 X113.964 Y110.091 E.02776
G1 X113.086 Y110.086 E.02753
G1 X112.231 Y109.911 E.02736
G1 X111.427 Y109.572 E.02736
G1 X110.735 Y109.108 E.02612
G1 X110.111 Y108.487 E.0276
G1 X109.622 Y107.755 E.0276
G1 X109.298 Y106.98 E.02634
G1 X109.183 Y106.42 E.01792
G1 X109.183 Y106.42 F9000
G1 X109.55 Y106.343
G1 F1200
G1 X109.499 Y106.099 E.00782
G1 X109.491 Y105.307 E.02483
G1 X109.639 Y104.516 E.02523
